groups/sulfur/tosyl.svg

<?xml version='1.0' encoding='iso-8859-1'?>
<svg version='1.1' baseProfile='full'
              xmlns='http://www.w3.org/2000/svg'
                      xmlns:rdkit='http://www.rdkit.org/xml'
                      xmlns:xlink='http://www.w3.org/1999/xlink'
                  xml:space='preserve'
width='256px' height='256px' viewBox='0 0 256 256'>
<!-- END OF HEADER -->
<rect style='opacity:1.0;fill:#FFFFFF;stroke:none' width='256.0' height='256.0' x='0.0' y='0.0'> </rect>
<path class='bond-0 atom-0 atom-1' d='M 232.2,75.3 L 204.2,91.2' style='fill:none;fill-rule:evenodd;stroke:#000000;stroke-width:2.0px;stroke-linecap:butt;stroke-linejoin:miter;stroke-opacity:1' />
<path class='bond-1 atom-1 atom-2' d='M 192.7,85.7 L 184.8,71.9' style='fill:none;fill-rule:evenodd;stroke:#000000;stroke-width:2.0px;stroke-linecap:butt;stroke-linejoin:miter;stroke-opacity:1' />
<path class='bond-1 atom-1 atom-2' d='M 187.1,88.9 L 179.2,75.1' style='fill:none;fill-rule:evenodd;stroke:#000000;stroke-width:2.0px;stroke-linecap:butt;stroke-linejoin:miter;stroke-opacity:1' />
<path class='bond-2 atom-1 atom-3' d='M 200.4,112.2 L 208.2,126.0' style='fill:none;fill-rule:evenodd;stroke:#000000;stroke-width:2.0px;stroke-linecap:butt;stroke-linejoin:miter;stroke-opacity:1' />
<path class='bond-2 atom-1 atom-3' d='M 206.0,109.1 L 213.8,122.9' style='fill:none;fill-rule:evenodd;stroke:#000000;stroke-width:2.0px;stroke-linecap:butt;stroke-linejoin:miter;stroke-opacity:1' />
<path class='bond-3 atom-1 atom-4' d='M 186.0,101.6 L 157.9,117.6' style='fill:none;fill-rule:evenodd;stroke:#000000;stroke-width:2.0px;stroke-linecap:butt;stroke-linejoin:miter;stroke-opacity:1' />
<path class='bond-4 atom-4 atom-5' d='M 157.9,117.6 L 121.0,95.9' style='fill:none;fill-rule:evenodd;stroke:#000000;stroke-width:2.0px;stroke-linecap:butt;stroke-linejoin:miter;stroke-opacity:1' />
<path class='bond-4 atom-4 atom-5' d='M 151.5,121.2 L 121.0,103.3' style='fill:none;fill-rule:evenodd;stroke:#000000;stroke-width:2.0px;stroke-linecap:butt;stroke-linejoin:miter;stroke-opacity:1' />
<path class='bond-5 atom-5 atom-6' d='M 121.0,95.9 L 83.8,117.1' style='fill:none;fill-rule:evenodd;stroke:#000000;stroke-width:2.0px;stroke-linecap:butt;stroke-linejoin:miter;stroke-opacity:1' />
<path class='bond-6 atom-6 atom-7' d='M 83.8,117.1 L 83.6,159.8' style='fill:none;fill-rule:evenodd;stroke:#000000;stroke-width:2.0px;stroke-linecap:butt;stroke-linejoin:miter;stroke-opacity:1' />
<path class='bond-6 atom-6 atom-7' d='M 90.2,120.8 L 90.0,156.2' style='fill:none;fill-rule:evenodd;stroke:#000000;stroke-width:2.0px;stroke-linecap:butt;stroke-linejoin:miter;stroke-opacity:1' />
<path class='bond-7 atom-7 atom-8' d='M 83.6,159.8 L 55.5,175.8' style='fill:none;fill-rule:evenodd;stroke:#000000;stroke-width:2.0px;stroke-linecap:butt;stroke-linejoin:miter;stroke-opacity:1' />
<path class='bond-8 atom-7 atom-9' d='M 83.6,159.8 L 120.5,181.4' style='fill:none;fill-rule:evenodd;stroke:#000000;stroke-width:2.0px;stroke-linecap:butt;stroke-linejoin:miter;stroke-opacity:1' />
<path class='bond-9 atom-9 atom-10' d='M 120.5,181.4 L 157.6,160.3' style='fill:none;fill-rule:evenodd;stroke:#000000;stroke-width:2.0px;stroke-linecap:butt;stroke-linejoin:miter;stroke-opacity:1' />
<path class='bond-9 atom-9 atom-10' d='M 120.5,174.0 L 151.2,156.6' style='fill:none;fill-rule:evenodd;stroke:#000000;stroke-width:2.0px;stroke-linecap:butt;stroke-linejoin:miter;stroke-opacity:1' />
<path class='bond-10 atom-10 atom-4' d='M 157.6,160.3 L 157.9,117.6' style='fill:none;fill-rule:evenodd;stroke:#000000;stroke-width:2.0px;stroke-linecap:butt;stroke-linejoin:miter;stroke-opacity:1' />
<path d='M 122.9,97.0 L 121.0,95.9 L 119.2,97.0' style='fill:none;stroke:#000000;stroke-width:2.0px;stroke-linecap:butt;stroke-linejoin:miter;stroke-miterlimit:10;stroke-opacity:1;' />
<path d='M 85.7,116.0 L 83.8,117.1 L 83.8,119.2' style='fill:none;stroke:#000000;stroke-width:2.0px;stroke-linecap:butt;stroke-linejoin:miter;stroke-miterlimit:10;stroke-opacity:1;' />
<path d='M 118.6,180.4 L 120.5,181.4 L 122.3,180.4' style='fill:none;stroke:#000000;stroke-width:2.0px;stroke-linecap:butt;stroke-linejoin:miter;stroke-miterlimit:10;stroke-opacity:1;' />
<path d='M 155.8,161.4 L 157.6,160.3 L 157.6,158.2' style='fill:none;stroke:#000000;stroke-width:2.0px;stroke-linecap:butt;stroke-linejoin:miter;stroke-miterlimit:10;stroke-opacity:1;' />
<path class='atom-1' d='M221.661,56.6829 C220.267,57.4757 221.324,59.3339 222.718,58.5412 C224.111,57.7485 225.168,59.6067 223.775,60.3994 C222.381,61.1921 223.438,63.0504 224.832,62.2577 C226.225,61.4649 227.282,63.3232 225.889,64.1159 C224.495,64.9086 225.552,66.7669 226.945,65.9742 C228.339,65.1814 229.396,67.0397 228.002,67.8324 C226.609,68.6251 227.666,70.4834 229.059,69.6906 C230.453,68.8979 231.51,70.7562 230.116,71.5489 C228.723,72.3416 229.78,74.1998 231.173,73.4071 C232.567,72.6144 233.624,74.4727 232.23,75.2654 C230.837,76.0581 231.894,77.9163 233.287,77.1236 C234.681,76.3309 235.738,78.1891 234.344,78.9819 C232.951,79.7746 234.008,81.6328 235.401,80.8401 C236.795,80.0474 237.852,81.9056 236.458,82.6983 C235.065,83.4911 236.121,85.3493 237.515,84.5566 C238.909,83.7639 239.966,85.6221 238.572,86.4148 C237.178,87.2075 238.235,89.0658 239.629,88.2731 C241.023,87.4804 242.08,89.3386 240.686,90.1313 C239.292,90.924 240.349,92.7823 241.743,91.9896 C243.137,91.1968 244.194,93.0551 242.8,93.8478' style='fill:none;stroke:#7F7F7F;stroke-width:2.0px;stroke-linecap:butt;stroke-linejoin:miter;stroke-opacity:1' />
<text x='187.4' y='109.2' class='atom-1' style='font-size:25px;font-style:normal;font-weight:normal;fill-opacity:1;stroke:none;font-family:sans-serif;text-anchor:start;fill:#000000' >S</text>
<text x='166.2' y='72.1' class='atom-2' style='font-size:25px;font-style:normal;font-weight:normal;fill-opacity:1;stroke:none;font-family:sans-serif;text-anchor:start;fill:#000000' >O</text>
<text x='208.5' y='146.4' class='atom-3' style='font-size:25px;font-style:normal;font-weight:normal;fill-opacity:1;stroke:none;font-family:sans-serif;text-anchor:start;fill:#000000' >O</text>
<text x='12.8' y='193.8' class='atom-8' style='font-size:25px;font-style:normal;font-weight:normal;fill-opacity:1;stroke:none;font-family:sans-serif;text-anchor:start;fill:#000000' >H</text>
<text x='30.5' y='204.1' class='atom-8' style='font-size:16px;font-style:normal;font-weight:normal;fill-opacity:1;stroke:none;font-family:sans-serif;text-anchor:start;fill:#000000' >3</text>
<text x='38.7' y='193.8' class='atom-8' style='font-size:25px;font-style:normal;font-weight:normal;fill-opacity:1;stroke:none;font-family:sans-serif;text-anchor:start;fill:#000000' >C</text>
</svg>

<svg height="256" viewBox="0 0 256 256" width="256" xmlns="http://www.w3.org/2000/svg"><path d="m0 0h256v256h-256z" fill="#fff"/><g fill="none" stroke-width="2"><path d="m232.2 75.3-28 15.9" stroke="#000"/><path d="m192.7 85.7-7.9-13.8" stroke="#000"/><path d="m187.1 88.9-7.9-13.8" stroke="#000"/><path d="m200.4 112.2 7.8 13.8" stroke="#000"/><path d="m206 109.1 7.8 13.8" stroke="#000"/><path d="m186 101.6-28.1 16" stroke="#000"/><path d="m157.9 117.6-36.9-21.7" stroke="#000"/><path d="m151.5 121.2-30.5-17.9" stroke="#000"/><path d="m121 95.9-37.2 21.2" stroke="#000"/><path d="m83.8 117.1-.2 42.7" stroke="#000"/><path d="m90.2 120.8-.2 35.4" stroke="#000"/><path d="m83.6 159.8-28.1 16" stroke="#000"/><path d="m83.6 159.8 36.9 21.6" stroke="#000"/><path d="m120.5 181.4 37.1-21.1" stroke="#000"/><path d="m120.5 174 30.7-17.4" stroke="#000"/><path d="m157.6 160.3.3-42.7" stroke="#000"/><path d="m122.9 97-1.9-1.1-1.8 1.1" stroke="#000" stroke-miterlimit="10"/><path d="m85.7 116-1.9 1.1v2.1" stroke="#000" stroke-miterlimit="10"/><path d="m118.6 180.4 1.9 1 1.8-1" stroke="#000" stroke-miterlimit="10"/><path d="m155.8 161.4 1.8-1.1v-2.1" stroke="#000" stroke-miterlimit="10"/><path d="m221.661 56.683c-1.394.793-.337 2.651 1.057 1.858 1.393-.792 2.45 1.066 1.057 1.858-1.394.793-.337 2.651 1.057 1.859 1.393-.793 2.45 1.065 1.057 1.858-1.394.793-.337 2.651 1.056 1.858 1.394-.793 2.451 1.066 1.057 1.858-1.393.793-.336 2.651 1.057 1.859 1.394-.793 2.451 1.065 1.057 1.858-1.393.793-.336 2.651 1.057 1.858 1.394-.793 2.451 1.066 1.057 1.858-1.393.793-.336 2.651 1.057 1.859 1.394-.793 2.451 1.065 1.057 1.858-1.393.793-.336 2.651 1.057 1.858 1.394-.793 2.451 1.066 1.057 1.858-1.393.793-.337 2.651 1.057 1.859 1.394-.793 2.451 1.065 1.057 1.858s-.337 2.651 1.057 1.858 2.451 1.066 1.057 1.858c-1.394.793-.337 2.651 1.057 1.859 1.394-.793 2.451 1.065 1.057 1.858" stroke="#7f7f7f"/></g><text font-family="sans-serif" font-size="25" x="187.4" y="109.2">S</text><text font-family="sans-serif" font-size="25" x="166.2" y="72.1">O</text><text font-family="sans-serif" font-size="25" x="208.5" y="146.4">O</text><text font-family="sans-serif" font-size="25" x="12.8" y="193.8">H</text><text font-family="sans-serif" font-size="16" x="30.5" y="204.1">3</text><text font-family="sans-serif" font-size="25" x="38.7" y="193.8">C</text></svg>
